!!!OTL: 621. Herzigs Mariandel.
!!!ARE: Europa, Mitteleuropa, Deutschland; France, Elsass
!!!SCT: E0621
!!!TXL: @@DE
!!!YEM: Copyright 1995, estate of Helmut Schaffrath.
**kern	**text
*ICvox	*
*M3/4	*
*k[f#]	*
*G:	*
=1	=1
!LO:TX:a:t=Heiter.	!
!LO:TX:a:t=Aus dem Elſaß. Weckerlin II S. 203.	!
{4g	Her-
8gL	-ʒigs
8aJ	.
8bL	Ma-
8ccJ	.
=2	=2
4dd	-ri-
4b}	-andel,
{4b	wo
=3	=3
4cc	gehſt
4a	du
4a	denn
=4	=4
2b	hin!
4r}	.
=5	=5
{4g	Her-
8gL	-ʒigs
8aJ	.
8bL	Ma-
8ccJ	.
=6	=6
4dd	-ri-
4b}	-andel,
{4b	wo
=7	=7
4cc	gehſt
4a	du
4a	denn
=8	=8
2b	hin!
4r}	.
=9	=9
{4b	Jch
4b	geh
4b	nach
=10	=10
4a	Straßburg
4a	.
4a	hin,
=11	=11
4g	wo
4g	die
4g	Kano-
=12	=12
4d	-ni-
4d	-er
4d}	ſind.
=13	=13
{2g	No
4a	na
=14	=14
2b	ni,
4r	.
=15	=15
4.g	la
8a	de-
8b/	-ri
8a	de-
=16	=16
2g	-ri.
4r}	.
==	==
!!!AGN: Liebes - Lied
!!!ONB: ESAC (Essen Associative Code) Database: ERK2
!!!AMT: simple triple
!!!AIN: vox
!!!EED: Helmut Schaffrath
!!!EEV: 1.0
!!!GTL: Liebeslieder [Neuere (aus dem 18. bis 19. Jahrh.) - Liebeslust]
!!!URL-scan: https://rosdok.uni-rostock.de/mcrviewer/recordIdentifier/rosdok_ppn745177662/iview2/phys_0439.iview2?x=72.97952720689091&y=1854.1331967262086&scale=0.7029437510502773&rotation=0&layout=singlePageLayout
!!!ENC: Anna Maria Matuszewska
!!!EEV: 2024/12/12
*-	*-
